X:1
T:The Well-Tempered Clavier Part I Praeludium III
T:BWV 848
T:Johann Sebastian Bach
%%score { 1 | ( 2 3 ) }
L:1/8
Q:1/4=144
M:3/8
K:C#
V:1 treble nm="Harp"
V:2 bass 
V:3 bass 
V:1
"^Vivace" e/c/G/c/e/c/ | f/c/f/c/f/c/ | g/c/g/c/g/c/ | a/c/a/c/a/c/ | g/c/g/c/g/c/ | f/e/d/e/f/d/ | %6
 e/d/c/d/e/c/ | d/e/d/c/B/A/ | G2 g | A2 g | B2 g | c2 g | B2 g | A2 ^^f | G2 g- | gf/e/d/e/ | %16
 f/d/A/d/f/d/ | g/d/g/d/g/d/ | a/d/a/d/a/d/ | =b/d/b/d/b/d/ | a/d/a/d/a/d/ | g/f/e/f/g/e/ | %22
 f/e/d/e/f/d/ | e/f/e/d/c/B/ | A2 a | B2 a | c2 a | d2 a | c2 a | B2 ^^g | A2 a- | ag^^f | gGg- | %33
 gfe | f/e/d/e/f/d/ | ^^g/^^f/e/f/g/e/ | a/^^g/a/b/a/^g/ | ^^f/e/d/e/f/d/ | gGg- | gfe | fFf- | %41
 fed | e/d/c/d/e/c/ | ^^f/e/d/e/f/d/ | g/^^f/g/a/g/^f/ | e/d/c/d/e/c/ | F2 f | G2 f | A2 f | %49
 =B2 f | A2 f | G2 e | F2 f- | fe/d/c/d/ | e/c/G/c/e/c/ | f/c/f/c/f/c/ | g/c/g/c/g/c/ | %57
 a/c/a/c/a/c/ | g/c/g/c/g/c/ | f/e/d/e/f/d/ | e/d/c/d/e/c/ | d/e/d/c/B/A/ | B/G/ z/ G/ z/ G/ | %63
 B/G/ z/ G/ z/ G/ | c/G/ z/ G/ z/ G/ | c/G/ z/ G/ z/ G/ | f/G/ z/ G/ z/ G/ | f/G/ z/ G/ z/ G/ | %68
 e/G/ z/ G/ z/ G/ | e/G/ z/ G/ z/ G/ | ^^f/A/ z/ A/ z/ A/ | ^^f/A/ z/ A/ z/ A/ | g/B/ z/ B/ z/ B/ | %73
 g/B/ z/ B/ z/ B/ | g/c/ z/ G/ z/ c/ | z/ e/ z/ g/ z/ a/ | =b/a/g/f/e/d/ | e/f/g/=b/a/g/ | %78
 a/d/ z/ F/ z/ A/ | z/ d/ z/ f/ z/ g/ | =a/g/f/=e/d/c/ | d/=e/f/=a/g/f/ | g/c/ z/ =e/ z/ c/ | %83
 z/ =A/ z/ F/ z/ d/ | z/ G/ z/ =E/ z/ c/ | z/ =A/ z/ ^F/ z/ D/ | %86
[I:staff +1] B,/G,/[I:staff -1] z/[I:staff +1] G,/[I:staff -1] z/[I:staff +1] G,/ | %87
 B,/G,/[I:staff -1] z/[I:staff +1] G,/[I:staff -1] z/[I:staff +1] G,/ | %88
 C/G,/[I:staff -1] z/[I:staff +1] G,/[I:staff -1] z/[I:staff +1] G,/ | %89
 C/G,/[I:staff -1] z/[I:staff +1] G,/[I:staff -1] z/[I:staff +1] G,/ | %90
[I:staff -1] F/[I:staff +1]G,/[I:staff -1] z/[I:staff +1] G,/[I:staff -1] z/[I:staff +1] G,/ | %91
[I:staff -1] F/[I:staff +1]G,/[I:staff -1] z/[I:staff +1] G,/[I:staff -1] z/[I:staff +1] G,/ | %92
[I:staff -1] E/[I:staff +1]G,/[I:staff -1] z/[I:staff +1] G,/[I:staff -1] z/[I:staff +1] G,/ | %93
[I:staff -1] E/[I:staff +1]G,/[I:staff -1] z/[I:staff +1] G,/[I:staff -1] z/[I:staff +1] G,/ | %94
[I:staff -1] ^^F/[I:staff +1]A,/[I:staff -1] z/[I:staff +1] A,/[I:staff -1] z/[I:staff +1] A,/ | %95
[I:staff -1] ^^F/[I:staff +1]A,/[I:staff -1] z/[I:staff +1] A,/[I:staff -1] z/[I:staff +1] A,/ | %96
[I:staff -1] z z/[I:staff +1] F,/=A,/B,/ |[I:staff -1] z z/ A/c/=e/ | B/d/f/d/B/G/ | z3 | %100
 E/G/c/G/E/C/ | z3 | z [EGc][DGB] | [CGc]3 |] %104
V:2
 C,2 C | D,2 C | E,2 C | F,2 C | E,2 C | D,2 B, | C,2 C- | CB,/A,/G,/A,/ | B,/G,/D,/G,/B,/G,/ | %9
 C/G,/C/G,/C/G,/ | D/G,/D/G,/D/G,/ | E/G,/E/G,/E/G,/ | D/G,/D/G,/D/G,/ | C/B,/A,/B,/C/A,/ | %14
 B,/A,/G,/A,/B,/G,/ | A,/=B,/A,/G,/G,/F,/ | D,2 D | E,2 D | F,2 D | G,2 D | F,2 D | E,2 ^^C | %22
 D,2 D- | DC/B,/A,/B,/ | C/A,/E,/A,/C/A,/ | D/A,/D/A,/D/A,/ | E/A,/E/A,/E/A,/ | F/A,/F/A,/F/A,/ | %28
 E/A,/E/A,/E/A,/ | D/C/B,/C/D/B,/ | C/B,/A,/B,/C/A,/ | D/C/B,/C/D/B,/ | E/D/E/F/E/^D/ | %33
 ^^C/B,/A,/B,/C/A,/ | DD,D- | DCB, | CC,C | CB,A, | B,/A,/G,/A,/B,/G,/ | ^^C/B,/A,/B,/C/A,/ | %40
 D/^^C/D/E/D/^C/ | B,/A,/G,/A,/B,/G,/ | CC,C- | C=B,A, | =B,=B,,=B,- | B,A,G, | %46
 A,/F,/C,/F,/A,/F,/ | =B,/F,/B,/F,/B,/F,/ | C/F,/C/F,/C/F,/ | D/F,/D/F,/D/F,/ | C/F,/C/F,/C/F,/ | %51
 =B,/A,/G,/A,/B,/G,/ | A,/G,/F,/G,/A,/F,/ | G,/A,/G,/F,/E,/D,/ | C,2 C | D,2 C | E,2 C | F,2 C | %58
 E,2 C | D,2 C | C,2 C | F,E,D, | G,FD | G,FD | G,EC | G,EC | G,DB, | G,DB, | G,EC | G,EC | G,=EC | %71
 G,=EC | G,DB, | G,DB, | E,EC | G,E,D, | ^^C,E,A, | ^^CEG | FDA, | F,D,C, | B,,D,G, | B,DF | %82
 =EC=A, | F,DB, | =E,C=A, | F,D,B,, | G,,F,D, | G,,F,D, | G,,E,C, | G,,E,C, | G,,D,B,, | G,,D,B,, | %92
 G,,E,C, | G,,E,C, | G,,=E,C, | G,,=E,C, | G,,/B,,/D,/ z z/ | %97
[I:staff -1] C/=E/^^F/[I:staff +1] z z/ | G,, z2 | F/D/B,/G,/B,/D/ | G, z2 | %101
 A,/^^F,/=E,/C,/E,/F,/ | z [C,^E,G,][D,F,G,] | [E,G,]3 |] %104
V:3
 x3 | x3 | x3 | x3 | x3 | x3 | x3 | x3 | x3 | x3 | x3 | x3 | x3 | x3 | x3 | x3 | x3 | x3 | x3 | %19
 x3 | x3 | x3 | x3 | x3 | x3 | x3 | x3 | x3 | x3 | x3 | x3 | x3 | x3 | x3 | x3 | x3 | x3 | x3 | %38
 x3 | x3 | x3 | x3 | x3 | x3 | x3 | x3 | x3 | x3 | x3 | x3 | x3 | x3 | x3 | x3 | x3 | x3 | x3 | %57
 x3 | x3 | x3 | x3 | x3 | x3 | x3 | x3 | x3 | x3 | x3 | x3 | x3 | x3 | x3 | x3 | x3 | x3 | x3 | %76
 x3 | x3 | x3 | x3 | x3 | x3 | x3 | x3 | x3 | x3 | x3 | x3 | x3 | x3 | x3 | x3 | x3 | x3 | x3 | %95
 x3 | x3 | x3 | x3 | x3 | x3 | x3 | G,,3 | C,3 |] %104

